packages/match-icons/product/svg/super-network.svg

<svg fill="none" height="32" viewBox="0 0 32 32" width="32" xmlns="http://www.w3.org/2000/svg"><path d="m29.3806 20.5817c-.052-.0292-.1074-.0451-.1606-.07v-9.2142c.2997-.139.5671-.3392.7848-.5877s.381-.5399.4793-.85529c.0984-.31543.1296-.64795.0917-.97616-.038-.32822-.1442-.64486-.3119-.92955-.1676-.28469-.393-.53113-.6617-.72345s-.5746-.32627-.8981-.39322c-.3236-.06696-.6576-.06543-.9805.00447s-.6276.20663-.8945.40139l-8.47-4.69952c.0234-.32456-.0204-.65046-.1285-.95736-.1082-.3069-.2785-.588211-.5002-.826371-.2218-.238159-.4902-.428056-.7886-.557839s-.6204-.19666525-.9458-.19647234-.6473.06745684-.9455.19759334c-.2983.130137-.5665.320352-.7879.558774-.2215.238422-.3914.519935-.4992.826965-.1079.30702-.1512.63298-.1274.95751l-8.47072 4.7001c-.07158-.0567-.14641-.10916-.22412-.15711-.27169-.15325-.57093-.2514-.8806-.28885-.30967-.03744-.62369-.01344-.92407.07063s-.58123.22657-.82647.41932c-.24524.19276-.45005.43199-.60272.70401-.15266.27201-.25017.57147-.28695.88122-.03677.30975-.0121.62371.07262.92391s.22782.5807.42111.8256c.19328.2448.43296.4491.7053.6012.05225.0293.10767.0452.16114.0702v9.2138c-.2988.1382-.56547.3372-.78299.5843-.21751.2471-.38107.5368-.48022.8508-.09914.3139-.1317.645-.09559.9722s.1401.6433.30533.928c.16522.2848.38803.5319.65419.7256.26617.1937.56982.3298.89156.3994.32174.0697.65447.0715.97694.0053.32246-.0663.62756-.199.89578-.3899l8.49558 4.8511c-.0272.3267.0137.6555.1201.9656s.276.5947.4981.8359c.222.2411.4917.4336.792.5652.3002.1316.6245.1995.9524.1993.3278-.0001.652-.0683.9521-.2003.3002-.1319.5697-.3246.7915-.566s.3911-.5263.4971-.8365c.1061-.3102.1467-.639.1191-.9657l8.4956-4.851c.0641.0502.1308.097.1997.1401.2717.1532.571.2514.8806.2889.3097.0374.6237.0134.9241-.0707.3004-.084.5812-.2265.8265-.4193.2452-.1928.45-.432.6027-.704s.2502-.5715.287-.8812c.0367-.3098.0121-.6237-.0727-.9239-.0847-.3002-.2278-.5808-.4211-.8256s-.4329-.4491-.7053-.6012zm-2.5073-9.4687c.1075.0726.1955.1708.2559.2856.0605.1148.0917.2428.0908.3726v6.1631c0 .043 0 .081-.0791.0996-.0811.0176-.0967-.0166-.1153-.0547l-2.9853-6.1113c.0049-.0127.0124-.0243.022-.0341.0096-.0097.021-.0174.0336-.0226l2.042-.7855c.1203-.0471.2504-.0638.3787-.0486s.2508.0619.3567.1359zm-7.042-5.37892c.0077-.01184.0178-.02183.0298-.02927.012-.00743.0255-.01212.0395-.01373.0201.00194.0395.00891.0562.02026l5.728 3.17895c.0157.00885.0285.02201.037.03793.0085.01591.0122.03392.0108.05189-.0015.01797-.008.03516-.0189.04952-.0109.01437-.0257.02532-.0426.03156l-2.6367 1.01461c-.0208.0066-.0431.0068-.064.0006-.021-.0062-.0396-.0185-.0534-.0354l-3.0933-4.18122c-.0251-.03479-.0454-.06501.0076-.12568zm-3.9219 15.88512-4.79-9.1585c-.0083-.0156-.0125-.033-.0121-.0507.0005-.0176.0054-.0348.0145-.05.009-.0151.0218-.0276.0372-.0364.0153-.0087.0326-.0133.0503-.0133h9.581c.0179-.0011.0358.003.0514.0118.0156.0089.0283.0221.0365.038.0102.0144.0159.0314.0167.0489.0007.0176-.0036.035-.0125.0502l-.159.3038-.0024.0033-4.6304 8.8528c-.0203.0374-.1604.0336-.1812.0001zm4.5977-11.472c.0124.0148.0199.033.0215.0523.0016.0192-.0029.0385-.0127.0551-.0074.0177-.0201.0326-.0364.0426s-.0354.0145-.0545.0131h-8.8496c-.0193.0015-.0386-.0032-.0551-.0134s-.0293-.0253-.0367-.0433c-.0097-.016-.0142-.0346-.0128-.0533s.0086-.0365.0207-.0509l.0117-.0162 3.6799-4.97421c.094-.12801.217-.23198.3588-.30345s.2985-.10841.4574-.1078h.001c.1589-.00061.3158.03631.4578.10777.142.07147.2651.17545.3593.30348zm-14.19045-1.25782 5.72895-3.179c.0159-.0107.0342-.01732.0533-.01928.0141.00168.0277.00639.0398.01381.0122.00742.0226.01738.0305.02919.053.06055.032.09162.0076.12549l-3.0933 4.18141c-.01373.0176-.0327.0303-.05416.0364s-.0443.0053-.06523-.0025l-.34473-.13254v-.00025l-2.03613-.7832-.00268-.00067-.2522-.09705c-.01795-.00469-.03374-.01538-.04476-.0303-.01101-.01492-.01659-.03317-.01579-.0517-.00311-.01827.00002-.03707.00887-.05335.00886-.01629.02293-.02913.03996-.03646zm-1.3418 9.08902c-.01855.038-.02929.0711-.11621.0555-.07812-.0185-.07812-.0556-.07812-.0996v-6.1631c-.00103-.1296.02972-.2575.08956-.3726.05985-.115.14696-.2136.25372-.2871.10675-.0736.22991-.1198.35869-.1348.12878-.0149.25926.0019.38003.049l2.12427.8172-.03052.108zm1.98584 4.0042c-.18474-.0199-.36197-.084-.51666-.1869-.1547-.103-.2823-.2417-.37199-.4044s-.13883-.3447-.14325-.5304c-.00443-.1858.036-.3699.11784-.5367l3.2793-6.6304c.00709-.0175.0196-.0322.03569-.042s.0349-.0141.05366-.0124h.002c.01879-.0013.03753.0032.05362.013s.02875.0244.03622.0417l4.62988 8.8525.002.0026.0205.0394c.0084.0161.0124.0342.0115.0523-.0008.0182-.0065.0358-.0165.051s-.0238.0274-.0401.0355-.0344.0116-.0526.0103zm1.88477 2.4078c-.03858-.0227-.06909-.041-.04346-.1182.01953-.0615.0459-.0732.07715-.0732l.02588.0016 6.00337.639c.0251.0028.0483.0146.0652.0333.0169.0188.0264.043.0266.0682v2.3145c-.0001.066-.0176.1307-.0506.1879-.033.0571-.0805.1046-.1375.1377-.0571.0331-.1218.0506-.1878.0509s-.1309-.0167-.1883-.0493zm14.30614.0019-.249.1422-5.3389 3.0483c-.0551.0331-.1181.0508-.1824.0513-.0643.0004-.1275-.0165-.183-.0488-.011-.0064-.0196-.0152-.0306-.0214-.0525-.0322-.0956-.0776-.125-.1317s-.0441-.115-.0424-.1766v-2.3145c0-.025.0093-.0492.026-.0679s.0396-.0306.0645-.0335l6.0047-.6392.0259-.0015c.0312 0 .0576.0117.0771.0732.0254.0781-.0059.0966-.0469.1201zm1.8882-2.4097-7.1013.7552c-.0181.0026-.0366-.0003-.0531-.0082-.0165-.008-.0302-.0207-.0395-.0365-.0112-.0142-.0179-.0315-.0192-.0497-.0012-.0181.0031-.0361.0124-.0517l4.6572-8.9027c.0077-.0162.0201-.0296.0357-.0385.0155-.0089.0334-.0128.0512-.0111h.001c.0189-.0017.0379.0027.0541.0125s.0289.0245.0363.042l3.2768 6.6261c.0825.1668.1235.3511.1196.5372-.0039.186-.0527.3684-.1422.5316s-.217.3024-.3718.4057c-.1548.1034-.3322.1679-.5172.188z" fill="#394762"/></svg>

<svg width="32" height="32" viewBox="0 0 32 32" fill="none" xmlns="http://www.w3.org/2000/svg">
<path d="M29.3806 20.5817C29.3286 20.5525 29.2732 20.5366 29.22 20.5117V11.2975C29.5197 11.1585 29.7871 10.9583 30.0048 10.7098C30.2225 10.4613 30.3858 10.1699 30.4841 9.85451C30.5825 9.53908 30.6137 9.20656 30.5758 8.87835C30.5378 8.55013 30.4316 8.23349 30.2639 7.9488C30.0963 7.66411 29.8709 7.41767 29.6022 7.22535C29.3335 7.03303 29.0276 6.89908 28.7041 6.83213C28.3805 6.76517 28.0465 6.7667 27.7236 6.8366C27.4007 6.9065 27.096 7.04323 26.8291 7.23799L18.3591 2.53847C18.3825 2.21391 18.3387 1.88801 18.2306 1.58111C18.1224 1.27421 17.9521 0.992899 17.7304 0.754739C17.5086 0.51658 17.2402 0.326683 16.9418 0.1969C16.6434 0.067117 16.3214 0.000234753 15.996 0.000427662C15.6706 0.000620571 15.3487 0.0678845 15.0505 0.198021C14.7522 0.328158 14.484 0.518373 14.2626 0.756795C14.0411 0.995217 13.8712 1.27673 13.7634 1.58376C13.6555 1.89078 13.6122 2.21674 13.636 2.54127L5.16528 7.24137C5.0937 7.18467 5.01887 7.13221 4.94116 7.08426C4.66947 6.93101 4.37023 6.83286 4.06056 6.79541C3.75089 6.75797 3.43687 6.78197 3.13649 6.86604C2.83611 6.95011 2.55526 7.09261 2.31002 7.28536C2.06478 7.47812 1.85997 7.71735 1.7073 7.98937C1.55464 8.26138 1.45713 8.56084 1.42035 8.87059C1.38358 9.18034 1.40825 9.4943 1.49297 9.7945C1.57769 10.0947 1.72079 10.3752 1.91408 10.6201C2.10736 10.8649 2.34704 11.0692 2.61938 11.2213C2.67163 11.2506 2.72705 11.2665 2.78052 11.2915V20.5053C2.48172 20.6435 2.21505 20.8425 1.99753 21.0896C1.78002 21.3367 1.61646 21.6264 1.51731 21.9404C1.41817 22.2543 1.38561 22.5854 1.42172 22.9126C1.45783 23.2398 1.56182 23.5559 1.72705 23.8406C1.89227 24.1254 2.11508 24.3725 2.38124 24.5662C2.64741 24.7599 2.95106 24.896 3.2728 24.9656C3.59454 25.0353 3.92727 25.0371 4.24974 24.9709C4.5722 24.9046 4.8773 24.7719 5.14552 24.581L13.6411 29.4321C13.6139 29.7588 13.6548 30.0876 13.7612 30.3977C13.8676 30.7078 14.0372 30.9924 14.2593 31.2336C14.4813 31.4747 14.751 31.6672 15.0513 31.7988C15.3515 31.9304 15.6758 31.9983 16.0037 31.9981C16.3315 31.998 16.6557 31.9298 16.9558 31.7978C17.256 31.6659 17.5255 31.4732 17.7473 31.2318C17.9691 30.9904 18.1384 30.7055 18.2444 30.3953C18.3505 30.0851 18.3911 29.7563 18.3635 29.4296L26.8591 24.5786C26.9232 24.6288 26.9899 24.6756 27.0588 24.7187C27.3305 24.8719 27.6298 24.9701 27.9394 25.0076C28.2491 25.045 28.5631 25.021 28.8635 24.9369C29.1639 24.8529 29.4447 24.7104 29.69 24.5176C29.9352 24.3248 30.14 24.0856 30.2927 23.8136C30.4454 23.5416 30.5429 23.2421 30.5797 22.9324C30.6164 22.6226 30.5918 22.3087 30.507 22.0085C30.4223 21.7083 30.2792 21.4277 30.0859 21.1829C29.8926 20.9381 29.653 20.7338 29.3806 20.5817H29.3806ZM26.8733 11.113C26.9808 11.1856 27.0688 11.2838 27.1292 11.3986C27.1897 11.5134 27.2209 11.6414 27.22 11.7712V17.9343C27.22 17.9773 27.22 18.0153 27.1409 18.0339C27.0598 18.0515 27.0442 18.0173 27.0256 17.9792L24.0403 11.8679C24.0452 11.8552 24.0527 11.8436 24.0623 11.8338C24.0719 11.8241 24.0833 11.8164 24.0959 11.8112L26.1379 11.0257C26.2582 10.9786 26.3883 10.9619 26.5166 10.9771C26.6449 10.9923 26.7674 11.039 26.8733 11.113V11.113ZM19.8313 5.73408C19.839 5.72224 19.8491 5.71225 19.8611 5.70481C19.8731 5.69738 19.8866 5.69269 19.9006 5.69108C19.9207 5.69302 19.9401 5.69999 19.9568 5.71134L25.6848 8.89029C25.7005 8.89914 25.7133 8.9123 25.7218 8.92822C25.7303 8.94413 25.734 8.96214 25.7326 8.98011C25.7311 8.99808 25.7246 9.01527 25.7137 9.02963C25.7028 9.044 25.688 9.05495 25.6711 9.06119L23.0344 10.0758C23.0136 10.0824 22.9913 10.0826 22.9704 10.0764C22.9494 10.0702 22.9308 10.0579 22.917 10.041L19.8237 5.85978C19.7986 5.82499 19.7783 5.79477 19.8313 5.7341L19.8313 5.73408ZM15.9094 21.6192L11.1194 12.4607C11.1111 12.4451 11.1069 12.4277 11.1073 12.41C11.1078 12.3924 11.1127 12.3752 11.1218 12.36C11.1308 12.3449 11.1436 12.3324 11.159 12.3236C11.1743 12.3149 11.1916 12.3103 11.2093 12.3103H20.7903C20.8082 12.3092 20.8261 12.3133 20.8417 12.3221C20.8573 12.331 20.87 12.3442 20.8782 12.3601C20.8884 12.3745 20.8941 12.3915 20.8949 12.409C20.8956 12.4266 20.8913 12.444 20.8824 12.4592L20.7234 12.763L20.721 12.7663L16.0906 21.6191C16.0703 21.6565 15.9302 21.6527 15.9094 21.6192ZM20.5071 10.1472C20.5195 10.162 20.527 10.1802 20.5286 10.1995C20.5302 10.2187 20.5257 10.238 20.5159 10.2546C20.5085 10.2723 20.4958 10.2872 20.4795 10.2972C20.4632 10.3072 20.4441 10.3117 20.425 10.3103H11.5754C11.5561 10.3118 11.5368 10.3071 11.5203 10.2969C11.5038 10.2867 11.491 10.2716 11.4836 10.2536C11.4739 10.2376 11.4694 10.219 11.4708 10.2003C11.4722 10.1816 11.4794 10.1638 11.4915 10.1494L11.5032 10.1332L15.1831 5.15899C15.2771 5.03098 15.4001 4.92701 15.5419 4.85554C15.6837 4.78407 15.8404 4.74713 15.9993 4.74774H16.0003C16.1592 4.74713 16.3161 4.78405 16.4581 4.85551C16.6001 4.92698 16.7232 5.03096 16.8174 5.15899L20.5071 10.1472ZM6.31665 8.88938L12.0456 5.71038C12.0615 5.69968 12.0798 5.69306 12.0989 5.6911C12.113 5.69278 12.1266 5.69749 12.1387 5.70491C12.1509 5.71233 12.1613 5.72229 12.1692 5.7341C12.2222 5.79465 12.2012 5.82572 12.1768 5.85959L9.0835 10.041C9.06977 10.0586 9.0508 10.0713 9.02934 10.0774C9.00788 10.0835 8.98504 10.0827 8.96411 10.0749L8.61938 9.94236V9.94211L6.58325 9.15891L6.58057 9.15824L6.32837 9.06119C6.31042 9.0565 6.29463 9.04581 6.28361 9.03089C6.2726 9.01597 6.26702 8.99772 6.26782 8.97919C6.26471 8.96092 6.26784 8.94212 6.27669 8.92584C6.28555 8.90955 6.29962 8.89671 6.31665 8.88938V8.88938ZM4.97485 17.9784C4.9563 18.0164 4.94556 18.0495 4.85864 18.0339C4.78052 18.0154 4.78052 17.9783 4.78052 17.9343V11.7712C4.77949 11.6416 4.81024 11.5137 4.87008 11.3986C4.92993 11.2836 5.01704 11.185 5.1238 11.1115C5.23055 11.0379 5.35371 10.9917 5.48249 10.9767C5.61127 10.9618 5.74175 10.9786 5.86252 11.0257L7.98679 11.8429L7.95627 11.9509L4.97485 17.9784ZM6.96069 21.9826C6.77595 21.9627 6.59872 21.8986 6.44403 21.7957C6.28933 21.6927 6.16173 21.554 6.07204 21.3913C5.98235 21.2286 5.93321 21.0466 5.92879 20.8609C5.92436 20.6751 5.96479 20.491 6.04663 20.3242L9.32593 13.6938C9.33302 13.6763 9.34553 13.6616 9.36162 13.6518C9.37771 13.642 9.39652 13.6377 9.41528 13.6394H9.41728C9.43607 13.6381 9.45481 13.6426 9.4709 13.6524C9.48699 13.6622 9.49965 13.6768 9.50712 13.6941L14.137 22.5466L14.139 22.5492L14.1595 22.5886C14.1679 22.6047 14.1719 22.6228 14.171 22.6409C14.1702 22.6591 14.1645 22.6767 14.1545 22.6919C14.1445 22.7071 14.1307 22.7193 14.1144 22.7274C14.0981 22.7355 14.08 22.739 14.0618 22.7377L6.96069 21.9826ZM8.84546 24.3904C8.80688 24.3677 8.77637 24.3494 8.802 24.2722C8.82153 24.2107 8.8479 24.199 8.87915 24.199L8.90503 24.2006L14.9084 24.8396C14.9335 24.8424 14.9567 24.8542 14.9736 24.8729C14.9905 24.8917 15 24.9159 15.0002 24.9411V27.2556C15.0001 27.3216 14.9826 27.3863 14.9496 27.4435C14.9166 27.5006 14.8691 27.5481 14.8121 27.5812C14.755 27.6143 14.6903 27.6318 14.6243 27.6321C14.5583 27.6324 14.4934 27.6154 14.436 27.5828L8.84546 24.3904ZM23.1516 24.3923L22.9026 24.5345L17.5637 27.5828C17.5086 27.6159 17.4456 27.6336 17.3813 27.6341C17.317 27.6345 17.2538 27.6176 17.1983 27.5853C17.1873 27.5789 17.1787 27.5701 17.1677 27.5639C17.1152 27.5317 17.0721 27.4863 17.0427 27.4322C17.0133 27.3781 16.9986 27.3172 17.0003 27.2556V24.9411C17.0003 24.9161 17.0096 24.8919 17.0263 24.8732C17.043 24.8545 17.0659 24.8426 17.0908 24.8397L23.0955 24.2005L23.1214 24.199C23.1526 24.199 23.179 24.2107 23.1985 24.2722C23.2239 24.3503 23.1926 24.3688 23.1516 24.3923V24.3923ZM25.0398 21.9826L17.9385 22.7378C17.9204 22.7404 17.9019 22.7375 17.8854 22.7296C17.8689 22.7216 17.8552 22.7089 17.8459 22.6931C17.8347 22.6789 17.828 22.6616 17.8267 22.6434C17.8255 22.6253 17.8298 22.6073 17.8391 22.5917L22.4963 13.689C22.504 13.6728 22.5164 13.6594 22.532 13.6505C22.5475 13.6416 22.5654 13.6377 22.5832 13.6394H22.5842C22.6031 13.6377 22.6221 13.6421 22.6383 13.6519C22.6545 13.6617 22.6672 13.6764 22.6746 13.6939L25.9514 20.32C26.0339 20.4868 26.0749 20.6711 26.071 20.8572C26.0671 21.0432 26.0183 21.2256 25.9288 21.3888C25.8393 21.552 25.7118 21.6912 25.557 21.7945C25.4022 21.8979 25.2248 21.9624 25.0398 21.9825V21.9826Z" fill="#394762"/>
</svg>
